img/phone__ico.svg

<svg width="15" height="15" viewBox="0 0 15 15" fill="none" xmlns="http://www.w3.org/2000/svg">
<path d="M14.9199 11.8251C14.2235 10.371 13.0355 9.42233 11.3385 8.99892C11.0836 8.93532 10.8128 8.99851 10.6093 9.16475L9.1999 10.3164C8.9247 10.5412 8.53574 10.5702 8.23327 10.3836C6.74237 9.46393 5.53607 8.25763 4.6164 6.76674C4.42982 6.46427 4.45878 6.0753 4.68365 5.8001L5.83526 4.39069C6.0015 4.18723 6.06468 3.91638 6.00107 3.66146C5.57767 1.96447 4.62898 0.776532 3.17493 0.0800706C2.94035 -0.0322951 2.66363 -0.0260187 2.4342 0.0965196C1.70302 0.487012 1.00348 0.928856 0.340741 1.42571C0.0869775 1.61596 -0.041064 1.93052 0.0117416 2.24326C0.488162 5.0649 2.01277 8.03215 4.49032 10.5097C6.96786 12.9872 9.9351 14.5118 12.7567 14.9883C13.0695 15.0411 13.384 14.913 13.5743 14.6593C14.0711 13.9965 14.513 13.297 14.9035 12.5658C15.026 12.3364 15.0323 12.0597 14.9199 11.8251Z" fill="black"/>
</svg>

<svg width="15" height="15" fill="none" xmlns="http://www.w3.org/2000/svg"><path d="M14.92 11.825c-.697-1.454-1.884-2.403-3.582-2.826a.836.836 0 0 0-.729.166L9.2 10.316a.836.836 0 0 1-.966.068 10.947 10.947 0 0 1-3.617-3.617.836.836 0 0 1 .068-.967l1.151-1.41a.836.836 0 0 0 .166-.729C5.578 1.964 4.63.777 3.175.081a.823.823 0 0 0-.74.016C1.702.487 1.002.929.34 1.426a.846.846 0 0 0-.33.817c.477 2.822 2.002 5.79 4.48 8.267 2.477 2.477 5.444 4.002 8.266 4.478a.846.846 0 0 0 .817-.329 16.24 16.24 0 0 0 1.33-2.093.823.823 0 0 0 .016-.74Z" fill="#000"/></svg>
